X: 21
T:Harvest Home
% Nottingham Music Database
S:Kevin Briggs
M:4/4
L:1/8
R:Hornpipe
K:D
AF|"D"DAFA DAFA|"D"defe dcBA|"A"eAfA gAfA|"Em"edcB "A7"AGFE|
"D"DAFA DAFA|"D"defe dcBA|"A7"eAfA gece|"D"d2f2 d2:|:
cd|"A7/c+"eAA2/3A2/3A2/3 "D"fAA2/3A2/3A2/3|"A7/e"gAA2/3A2/3A2/3 "D"fAA2/3A2/3A2/3|
"A"eAfA gAfA|"Em"e2/3f2/3e2/3d2/3c2/3B2/3 "A7"A2/3B2/3A2/3G2/3F2/3E2/3|"D"DAFA DAFA| "D"defe dcBA|"A7"eAfA gece|"D"d2f2 d2:|


